data/sheikah/n.svg

<!-- Generated by IcoMoon.io -->
<svg version="1.1" xmlns="http://www.w3.org/2000/svg" width="1024" height="1024" viewBox="0 0 1024 1024">
<title></title>
<g id="icomoon-ignore">
</g>
<path d="M153.5 273l119.5-119.5h79.5l119.5 119.5v79.5l-119.5 119.5h-199v-119.5h199v-79.5h-199zM552 153.5v398.5h-279l-119.5 119.5v79.5l119.5 119.5h478l119.5-119.5v-478l-119.5-119.5v597.5h-478v-79.5h279l119.5-119.5v-398.5h-119.5z"></path>
</svg>

<svg xmlns="http://www.w3.org/2000/svg" width="1024" height="1024" viewBox="0 0 1024 1024">
  <title/>
  <path d="M153.5 273 273 153.5h79.5L472 273v79.5L352.5 472h-199V352.5h199V273zM552 153.5V552H273L153.5 671.5V751L273 870.5h478L870.5 751V273L751 153.5V751H273v-79.5h279L671.5 552V153.5z"/>
</svg>
